SVG_Azure_All/Central Service Instance for SAP.svg

<?xml version="1.0" encoding="UTF-8" standalone="no"?>
<!-- Generated by Microsoft Visio, SVG Export Central Service Instance for SAP.svg Page-1 -->

<svg
   xmlns:dc="http://purl.org/dc/elements/1.1/"
   xmlns:cc="http://creativecommons.org/ns#"
   xmlns:rdf="http://www.w3.org/1999/02/22-rdf-syntax-ns#"
   xmlns:svg="http://www.w3.org/2000/svg"
   xmlns="http://www.w3.org/2000/svg"
   xmlns:sodipodi="http://sodipodi.sourceforge.net/DTD/sodipodi-0.dtd"
   xmlns:inkscape="http://www.inkscape.org/namespaces/inkscape"
   width="0.78949869in"
   height="0.43305418in"
   viewBox="0 0 56.84367 31.180007"
   xml:space="preserve"
   class="st8"
   version="1.1"
   id="svg55"
   sodipodi:docname="Central Service Instance for SAP.svg"
   style="font-size:12px;overflow:visible;color-interpolation-filters:sRGB;fill:none;fill-rule:evenodd;stroke-linecap:square;stroke-miterlimit:3"
   inkscape:version="0.92.5 (2060ec1f9f, 2020-04-08)"><metadata
   id="metadata59"><rdf:RDF><cc:Work
       rdf:about=""><dc:format>image/svg+xml</dc:format><dc:type
         rdf:resource="http://purl.org/dc/dcmitype/StillImage" /></cc:Work></rdf:RDF></metadata><sodipodi:namedview
   pagecolor="#ffffff"
   bordercolor="#666666"
   borderopacity="1"
   objecttolerance="10"
   gridtolerance="10"
   guidetolerance="10"
   inkscape:pageopacity="0"
   inkscape:pageshadow="2"
   inkscape:window-width="640"
   inkscape:window-height="480"
   id="namedview57"
   showgrid="false"
   inkscape:zoom="1.772247"
   inkscape:cx="37.89398"
   inkscape:cy="20.781073"
   inkscape:window-x="0"
   inkscape:window-y="0"
   inkscape:window-maximized="0"
   inkscape:current-layer="svg55" />
	<style
   type="text/css"
   id="style2">
	<![CDATA[
		.st1 {fill:url(#grad0-6);stroke:none;stroke-linecap:butt;stroke-width:34}
		.st2 {fill:#ffffff;fill-opacity:0.6;stroke:none;stroke-linecap:butt;stroke-width:34}
		.st3 {fill:#ffffff;fill-opacity:0.9;stroke:none;stroke-linecap:butt;stroke-width:34}
		.st4 {fill:#ffffff;fill-opacity:0.75;stroke:none;stroke-linecap:butt;stroke-width:34}
		.st5 {fill:#00ffff;fill-opacity:0.75;stroke:none;stroke-linecap:butt;stroke-width:34}
		.st6 {fill:#00ffff;fill-opacity:0.5;stroke:none;stroke-linecap:butt;stroke-width:34}
		.st7 {fill:#00ffff;stroke:none;stroke-linecap:butt;stroke-width:34}
		.st8 {fill:none;fill-rule:evenodd;font-size:12px;overflow:visible;stroke-linecap:square;stroke-miterlimit:3}
	]]>
	</style>

	<defs
   id="Patterns_And_Gradients">
		<linearGradient
   id="grad0-6"
   x1="-5.8970346e-05"
   y1="91.841977"
   x2="42.099815"
   y2="91.841977"
   gradientTransform="scale(1.3502202,0.74061994)"
   gradientUnits="userSpaceOnUse">
			<stop
   offset="0"
   stop-color="#005ba1"
   stop-opacity="1"
   id="stop4" />
			<stop
   offset="1"
   stop-color="#0078d4"
   stop-opacity="1"
   id="stop6" />
		</linearGradient>
	</defs>
	<g
   id="g53"
   transform="translate(-34.000389,-34.0043)">
		<title
   id="title10">Page-1</title>
		<g
   id="group7126-1"
   transform="translate(34,-34.0157)">
			<title
   id="title12">Central Service Instance for SAP</title>
			<g
   id="group7127-2">
				<title
   id="title14">Sheet.7127</title>
				<g
   id="shape7128-3">
					<title
   id="title16">Sheet.7128</title>
					<path
   d="m 1.92,99.2 h 27.36 a 1.91379,2.00507 -180 0 0 1.37,-0.6 L 56.29,71.45 a 1.92327,2.01499 -180 0 0 -1.37,-3.43 h -53 A 1.92011,2.01168 -180 0 0 0,70.04 v 27.13 a 1.92011,2.01168 -180 0 0 1.92,2.03 z"
   class="st1"
   id="path18"
   inkscape:connector-curvature="0"
   style="fill:url(#grad0-6);stroke:none;stroke-width:34;stroke-linecap:butt" />
				</g>
				<g
   id="shape7129-7"
   transform="translate(20.1738,-8.50003)">
					<title
   id="title21">Sheet.7129</title>
					<path
   d="m 6.13,88.03 v 7.43 L 0,99.2 v -7.45 z"
   class="st2"
   id="path23"
   inkscape:connector-curvature="0"
   style="fill:#ffffff;fill-opacity:0.6;stroke:none;stroke-width:34;stroke-linecap:butt" />
				</g>
				<g
   id="shape7130-9"
   transform="translate(14.0313,-15.9347)">
					<title
   id="title26">Sheet.7130</title>
					<path
   d="M 12.27,95.46 6.14,99.2 0,95.45 6.14,91.72 Z"
   class="st3"
   id="path28"
   inkscape:connector-curvature="0"
   style="fill:#ffffff;fill-opacity:0.9;stroke:none;stroke-width:34;stroke-linecap:butt" />
				</g>
				<g
   id="shape7131-11"
   transform="translate(14.0313,-8.50003)">
					<title
   id="title31">Sheet.7131</title>
					<path
   d="M 6.14,91.76 V 99.2 L 0,95.46 v -7.44 z"
   class="st4"
   id="path33"
   inkscape:connector-curvature="0"
   style="fill:#ffffff;fill-opacity:0.75;stroke:none;stroke-width:34;stroke-linecap:butt" />
				</g>
				<g
   id="shape7132-13"
   transform="translate(20.878,-7.05744)">
					<title
   id="title36">Sheet.7132</title>
					<path
   d="m 0.17,77.82 0.78,0.44 0.31,0.18 a 0.416866,0.436747 0 0 1 0,0.754382 L 0.95,79.39 0,79.98 a 10.2069,10.6937 0 0 1 7.43,17.1 0.205275,0.215065 -180 0 0 -0.034739,0.07279 L 7.01,98.66 a 0.413708,0.433438 -180 0 0 0.536873,0.532699 L 8.7,98.87 A 0.211591,0.221682 -180 0 0 8.807375,98.7939 12.2786,12.8642 -180 0 0 0.17,77.82 Z"
   class="st5"
   id="path38"
   inkscape:connector-curvature="0"
   style="fill:#00ffff;fill-opacity:0.75;stroke:none;stroke-width:34;stroke-linecap:butt" />
				</g>
				<g
   id="shape7133-15"
   transform="translate(9.9953,-2.70975)">
					<title
   id="title41">Sheet.7133</title>
					<path
   d="m 17.9,95.68 -0.35,0.09 A 0.413708,0.433438 0 0 1 17.04155,95.237301 L 17.14,94.88 l 0.25,-1 A 10.1785,10.6639 0 0 1 3.67,94.56 10.3774,10.8724 0 0 1 1.69,92.27 0.192643,0.20183 -180 0 0 1.6142062,92.200517 L 0.6,91.65 a 0.413708,0.433438 -180 0 0 -0.603192,0.410278 L 0.07,93.58 A 0.243172,0.254769 -180 0 0 0.1078969,93.699113 12.4618,13.0561 -180 0 0 1.85,95.79 12.266,12.851 -180 0 0 18.87,95.42 Z"
   class="st6"
   id="path43"
   inkscape:connector-curvature="0"
   style="fill:#00ffff;fill-opacity:0.5;stroke:none;stroke-width:34;stroke-linecap:butt" />
				</g>
				<g
   id="shape7134-17"
   transform="translate(8.84896,-9.43308)">
					<title
   id="title46">Sheet.7134</title>
					<path
   d="M 0.49,98.06 0.47,97.67 A 0.416866,0.436747 0 0 1 1.073192,97.259722 L 1.39,97.43 2.22,97.88 a 10.2037,10.6904 0 0 1 5.87,-15 10.2479,10.7367 0 0 1 2.75,-0.54 0.173694,0.181978 -180 0 0 0.09474,-0.02978 L 12.06,81.6 A 0.413708,0.433438 -180 0 0 12.04421,80.848927 L 10.92,80.19 A 0.195801,0.205139 -180 0 0 10.809467,80.16353 12.0733,12.6491 -180 0 0 8.05,80.61 12.2754,12.8609 -180 0 0 0.54,99.2 Z"
   class="st7"
   id="path48"
   inkscape:connector-curvature="0"
   style="fill:#00ffff;stroke:none;stroke-width:34;stroke-linecap:butt" />
				</g>
			</g>
		</g>
	</g>
</svg>

<?xml version="1.0" encoding="UTF-8" standalone="no"?>
<!DOCTYPE svg PUBLIC "-//W3C//DTD SVG 1.1//EN" "http://www.w3.org/Graphics/SVG/1.1/DTD/svg11.dtd">
<!-- Generated by Microsoft Visio, SVG Export Central Service Instance for SAP.svg Page-1 -->
<svg xmlns="http://www.w3.org/2000/svg" xmlns:xlink="http://www.w3.org/1999/xlink" xmlns:ev="http://www.w3.org/2001/xml-events"
		width="1.73391in" height="1.37773in" viewBox="0 0 124.841 99.1969" xml:space="preserve" color-interpolation-filters="sRGB"
		class="st8">
	<style type="text/css">
	<![CDATA[
		.st1 {fill:url(#grad0-6);stroke:none;stroke-linecap:butt;stroke-width:34}
		.st2 {fill:#ffffff;fill-opacity:0.6;stroke:none;stroke-linecap:butt;stroke-width:34}
		.st3 {fill:#ffffff;fill-opacity:0.9;stroke:none;stroke-linecap:butt;stroke-width:34}
		.st4 {fill:#ffffff;fill-opacity:0.75;stroke:none;stroke-linecap:butt;stroke-width:34}
		.st5 {fill:#00ffff;fill-opacity:0.75;stroke:none;stroke-linecap:butt;stroke-width:34}
		.st6 {fill:#00ffff;fill-opacity:0.5;stroke:none;stroke-linecap:butt;stroke-width:34}
		.st7 {fill:#00ffff;stroke:none;stroke-linecap:butt;stroke-width:34}
		.st8 {fill:none;fill-rule:evenodd;font-size:12px;overflow:visible;stroke-linecap:square;stroke-miterlimit:3}
	]]>
	</style>

	<defs id="Patterns_And_Gradients">
		<linearGradient id="grad0-6" x1="0" y1="0" x2="1" y2="0" gradientTransform="rotate(-90 0.5 0.5)">
			<stop offset="0" stop-color="#005ba1" stop-opacity="1"/>
			<stop offset="1" stop-color="#0078d4" stop-opacity="1"/>
		</linearGradient>
	</defs>
	<g>
		<title>Page-1</title>
		<g id="group6958-1" transform="translate(34,-34.0157)">
			<title>Central Service Instance for SAP</title>
			<g id="group6959-2">
				<title>Sheet.6959</title>
				<g id="shape6960-3">
					<title>Sheet.6960</title>
					<path d="M1.92 99.2 L29.28 99.2 A1.91379 2.00507 -180 0 0 30.65 98.6 L56.29 71.45 A1.92327 2.01499 -180 0 0 54.92
								 68.02 L1.92 68.02 A1.92011 2.01168 -180 0 0 -0 70.04 L0 97.17 A1.92011 2.01168 -180 0 0 1.92 99.2
								 Z" class="st1"/>
				</g>
				<g id="shape6961-7" transform="translate(20.1738,-8.50003)">
					<title>Sheet.6961</title>
					<path d="M6.13 88.03 L6.13 95.46 L0 99.2 L0 91.75 L6.13 88.03 Z" class="st2"/>
				</g>
				<g id="shape6962-9" transform="translate(14.0313,-15.9347)">
					<title>Sheet.6962</title>
					<path d="M12.27 95.46 L6.14 99.2 L0 95.45 L6.14 91.72 L12.27 95.46 Z" class="st3"/>
				</g>
				<g id="shape6963-11" transform="translate(14.0313,-8.50003)">
					<title>Sheet.6963</title>
					<path d="M6.14 91.76 L6.14 99.2 L0 95.46 L0 88.02 L6.14 91.76 Z" class="st4"/>
				</g>
				<g id="shape6964-13" transform="translate(20.878,-7.05744)">
					<title>Sheet.6964</title>
					<path d="M0.17 77.82 L0.95 78.26 L1.26 78.44 a0.416866 0.436747 0 0 1 2.08722E-14 0.754382 L0.95 79.39 L0 79.98
								 A10.2069 10.6937 0 0 1 7.43 97.08 a0.205275 0.215065 -180 0 0 -0.0347388 0.0727912 L7.01 98.66 a0.413708
								 0.433438 -180 0 0 0.536873 0.532699 L8.7 98.87 a0.211591 0.221682 -180 0 0 0.107375 -0.0760999 A12.2786
								 12.8642 -180 0 0 0.17 77.82 Z" class="st5"/>
				</g>
				<g id="shape6965-15" transform="translate(9.9953,-2.70975)">
					<title>Sheet.6965</title>
					<path d="M17.9 95.68 L17.55 95.77 a0.413708 0.433438 0 0 1 -0.50845 -0.532699 L17.14 94.88 L17.39 93.88 A10.1785
								 10.6639 0 0 1 3.67 94.56 A10.3774 10.8724 0 0 1 1.69 92.27 a0.192643 0.20183 -180 0 0 -0.0757938
								 -0.0694825 L0.6 91.65 a0.413708 0.433438 -180 0 0 -0.603192 0.410278 L0.07 93.58 a0.243172 0.254769
								 -180 0 0 0.0378969 0.119113 A12.4618 13.0561 -180 0 0 1.85 95.79 A12.266 12.851 -180 0 0 18.87 95.42
								 L17.9 95.68 Z" class="st6"/>
				</g>
				<g id="shape6966-17" transform="translate(8.84896,-9.43308)">
					<title>Sheet.6966</title>
					<path d="M0.49 98.06 L0.47 97.67 a0.416866 0.436747 0 0 1 0.603192 -0.410278 L1.39 97.43 L2.22 97.88 A10.2037
								 10.6904 0 0 1 8.09 82.88 A10.2479 10.7367 0 0 1 10.84 82.34 a0.173694 0.181978 -180 0 0 0.0947422
								 -0.0297782 L12.06 81.6 a0.413708 0.433438 -180 0 0 -0.0157904 -0.751073 L10.92 80.19 a0.195801 0.205139
								 -180 0 0 -0.110533 -0.0264695 A12.0733 12.6491 -180 0 0 8.05 80.61 A12.2754 12.8609 -180 0 0 0.54
								 99.2 L0.49 98.06 Z" class="st7"/>
				</g>
			</g>
		</g>
	</g>
</svg>
